.local/share/icons/Gruvbox-Plus-Dark/emblems/16/emblem-synchronizing.svg

<svg xmlns="http://www.w3.org/2000/svg" width="16" height="16" version="1.1" viewBox="0 0 16 16">
 <circle style="fill:#282828" cx="8" cy="8" r="7"/>
 <path style="fill:#ebdbb2" d="M 8.2636719 4.0039062 C 7.9553875 4.0156437 7.6405762 4.060159 7.3164062 4.140625 C 5.3948162 4.567168 3.9745 6.240627 4 8 L 3 8 L 4.5 10 L 6 8 L 5 8 C 4.99535 7.2298936 5.4005862 6.4646563 6.0039062 5.9121094 C 7.0456263 4.8955544 8.5923794 4.6691104 9.9121094 5.3808594 C 10.368789 5.9121164 11.38746 5.3399166 10.84375 4.7910156 C 10.04446 4.2387216 9.188525 3.9686937 8.2636719 4.0039062 z M 11.5 6 L 10 8 L 11 8 C 11.00465 8.7701064 10.599414 9.5353441 9.9960938 10.087891 C 8.9543735 11.104446 7.4076206 11.33089 6.0878906 10.619141 C 5.6312106 10.087885 4.61254 10.660082 5.15625 11.208984 C 6.22197 11.945376 7.3869137 12.181239 8.6835938 11.859375 C 10.605184 11.432832 12.0255 9.7593735 12 8 L 13 8 L 11.5 6 z"/>
</svg>

<svg width="16" height="16" version="1.1" xmlns="http://www.w3.org/2000/svg">
  <circle cx="8" cy="8" r="7" fill="#504945"/>
  <path d="m8.264 4.004c-0.3083 0.01174-0.6231 0.05625-0.9473 0.1367-1.922 0.4265-3.342 2.1-3.316 3.859h-1l1.5 2 1.5-2h-1c-0.00465-0.7701 0.4006-1.535 1.004-2.088 1.042-1.017 2.588-1.243 3.908-0.5312 0.4567 0.5313 1.475-0.04094 0.9316-0.5898-0.7993-0.5523-1.655-0.8223-2.58-0.7871zm3.236 1.996-1.5 2h1c0.00465 0.7701-0.4006 1.535-1.004 2.088-1.042 1.017-2.588 1.243-3.908 0.5312-0.4567-0.5313-1.475 0.04094-0.9316 0.5898 1.066 0.7364 2.231 0.9723 3.527 0.6504 1.922-0.4265 3.342-2.1 3.316-3.859h1l-1.5-2z" fill="#ebdbb2"/>
</svg>
